X:283
T: DIE PFERD HAN ROTHE RIEMA
N: E0878
O: Europa, Mitteleuropa, Deutschland, Kuhlaendchen
R: Hochzeits -, Ehestands - Lied
M: 2/4
L: 1/16
K: G
D2 | D2_B2A2G2 | A4d2
d2 | c2A2_B2AG | =F4z2
A2 | A2A2A2c2 | _B4G2
BG | F2F2D2EF | G4z2

